resources/icons/cisco/radiotower.svg

<?xml version="1.0" encoding="UTF-8"?>
<svg xmlns="http://www.w3.org/2000/svg" xmlns:xlink="http://www.w3.org/1999/xlink" width="73pt" height="200pt" viewBox="0 0 73 200" version="1.1">
<defs>
<clipPath id="clip1">
  <path d="M 53.640625 7.855469 L 73 7.855469 L 73 40.871094 L 53.640625 40.871094 Z M 53.640625 7.855469 "/>
</clipPath>
<image id="image6" width="21" height="34" xlink:href="data:image/png;base64,iVBORw0KGgoAAAANSUhEUgAAABUAAAAiCAIAAAA/CgXUAAAABmJLR0QA/wD/AP+gvaeTAAABu0lEQVRIie3VzSsEYRwH8O/zzMzONLtZ0m5b3goHIkJYkVpxcWBLcsGRUko5ooSDf0DKAWXP5EhZSsoe0DopSeQl622FaXd2dsZh34qN8VJ78T3N83uez8zz65l6yMzK+qD7DAwLAACRpZOxzjybBfpCBzdO4xiAZhB9j086MQAK1qB/dTIPAOCUQEr9j/PvU+vZjyWX27PlPXpXzLVmdjXVtY3PbF5KLNThxqLRnnYAhA4tABADfklI/+JTkl8RY2vCykSNZaS7Pbp/Jixzqvy5T2AADDu5fSqHFIbYnQBMAX+5b/8mLSdMmM/fwlGiAQBUTmBuzxL9m4OP9fd7mmgWBIHneZ7nhViClJs7ljQNAHrKs1yHV3JYBXB+50/4a1O2N7NWIwQAQkAIeInMRAbRzB9cxJ+rCrKj/cus4LXFsL4Yn28GnC1Rr1LmC6zINukakR4AEnxd7HUg6fkvd5SW5ee+K2akGdNNxqmlVZfnyEDJdG9Lq70CSc9/t6+hurhQZxep/v///Z942WD8lVco90PPSN+4bZP4tf5mEpTiY+71Qf/lD4A6KktmW4vFF18E7ww7rRlm/f4NbR6MocSd6fIAAAAASUVORK5CYII="/>
<clipPath id="clip2">
  <path d="M 53.640625 49.125 L 73 49.125 L 73 86.265625 L 53.640625 86.265625 Z M 53.640625 49.125 "/>
</clipPath>
<image id="image7" width="21" height="38" xlink:href="data:image/png;base64,iVBORw0KGgoAAAANSUhEUgAAABUAAAAmCAIAAACkm0fCAAAABmJLR0QA/wD/AP+gvaeTAAAB90lEQVRIiWP8////iau3E6avffqTSYj57/muXCE+HgaiAeOD56806hb/4haC8AW/vngwsYCHk4NI/czzPwh95xGF83+w8QQoC0iLChGpn+kzrwTxrsWiH0r9/0eRfo6fnyjSTzYY1T+w+llIUr337OUpWw9zsrK0xgcoSokxMDAwMhXMZ2Bg4Prx4RuHANTI7x8Z//9H08n677epCOuhz5z/WdkZGBg4vr49Wx2hIS8N1c/9/f1XTkGS3CL69fmLWZVQ/7P//qb87jpJ+l9zS6w7dArhf7W3V4WZfv/l4GVDBezs7H+YWNY++gHxU5CmxJZbr379/cfAwLjtzFWE/h8snDe5Fb+zcDAyMjL+ZWT8wcj4k5GBgYGR8c+//3/hAXL44btff6GZlZ+TA6r/LxPLKRmHr6zcUFX/GRhQQhDBef3tF4TB9PNbZWQQ1P+/WdgRmnGBfyhlRKgsi4gAH5b49+D9IszDiSYoyM1REOjq0jLvAYsI49/fXqL/llVmM2CN/xNpNqaaKrgd8f/Hr19cHOxQXxBwMwZgYmKEayZHP7pxo/qpof8vExtF+n+ycZGrn9yaD6o/VQE1C/z7x8uFnvjx6Z9REGfB8g6aQ//9y9fg1JCXJl4/4////xkYGDYeObP22EUjJemCEA/iNSP0kw0ojX8AwwSo7ZIo368AAAAASUVORK5CYII="/>
</defs>
<g id="surface3">
<path style=" stroke:none;fill-rule:nonzero;fill:rgb(100%,100%,100%);fill-opacity:1;" d="M 18.070312 104.824219 L 43.054688 104.824219 L 43.054688 15.941406 L 18.070312 15.941406 Z M 18.070312 104.824219 "/>
<path style="fill:none;stroke-width:1;stroke-linecap:butt;stroke-linejoin:miter;stroke:rgb(0.784314%,43.921569%,62.352941%);stroke-opacity:1;stroke-miterlimit:1;" d="M 5.693386 33.018398 L 13.565176 33.018398 L 13.565176 5.021543 L 5.693386 5.021543 Z M 5.693386 33.018398 " transform="matrix(3.173913,0,0,3.174603,0,0)"/>
<path style="fill-rule:nonzero;fill:rgb(100%,100%,100%);fill-opacity:1;stroke-width:1;stroke-linecap:butt;stroke-linejoin:miter;stroke:rgb(0.784314%,43.921569%,62.352941%);stroke-opacity:1;stroke-miterlimit:1;" d="M 0.498448 60.803613 L 5.693386 32.805527 L 13.565176 32.805527 L 18.212436 60.803613 " transform="matrix(3.173913,0,0,3.174603,0,0)"/>
<path style="fill:none;stroke-width:1;stroke-linecap:butt;stroke-linejoin:miter;stroke:rgb(0.784314%,43.921569%,62.352941%);stroke-opacity:1;stroke-miterlimit:1;" d="M 0.225225 60.803613 L 16.410638 52.708359 L 3.286066 45.271406 L 14.223619 38.489063 L 6.126605 33.020859 L 13.349797 23.396133 L 5.908765 17.27332 L 13.565176 10.489746 L 5.693386 5.241797 " transform="matrix(3.173913,0,0,3.174603,0,0)"/>
<path style="fill:none;stroke-width:1;stroke-linecap:butt;stroke-linejoin:miter;stroke:rgb(0.784314%,43.921569%,62.352941%);stroke-opacity:1;stroke-miterlimit:1;" d="M 18.345355 60.803613 L 2.72485 52.708359 L 15.849422 45.271406 L 4.913099 38.490293 L 13.002729 33.02209 L 5.785691 23.397363 L 13.223031 17.274551 L 5.56539 10.490977 L 13.442102 5.243027 M 13.099957 5.021543 L 5.880458 5.021543 L 7.679795 1.529473 L 11.214469 1.529473 Z M 13.099957 5.021543 " transform="matrix(3.173913,0,0,3.174603,0,0)"/>
<path style="fill:none;stroke-width:1;stroke-linecap:butt;stroke-linejoin:miter;stroke:rgb(0%,0%,0%);stroke-opacity:1;stroke-miterlimit:1;" d="M 16.484482 5.720449 L 17.134311 4.924336 L 17.578607 4.924336 L 17.578607 9.104238 L 20.267765 9.104238 L 20.517605 9.352793 L 20.766214 9.352793 L 21.185895 8.933203 C 21.610499 8.758477 21.860338 9.553359 21.860338 9.553359 L 21.860338 9.851133 C 21.860338 9.851133 21.610499 10.646016 21.185895 10.476211 L 20.766214 10.051699 L 20.517605 10.051699 L 20.267765 10.300254 L 17.578607 10.300254 L 17.578607 14.485078 L 17.134311 14.485078 L 16.484482 13.685273 Z M 16.484482 5.720449 " transform="matrix(3.173913,0,0,3.174603,0,0)"/>
<path style=" stroke:none;fill-rule:nonzero;fill:rgb(69.803922%,69.803922%,69.803922%);fill-opacity:1;" d="M 52.320312 43.441406 L 47.886719 43.441406 C 45.515625 40.761719 45.84375 35.226562 45.84375 35.226562 L 41.25 35.226562 L 41.25 26.382812 L 45.84375 26.382812 C 45.84375 26.382812 45.515625 20.84375 47.886719 18.160156 L 52.320312 18.160156 L 52.320312 43.445312 "/>
<path style="fill:none;stroke-width:1;stroke-linecap:butt;stroke-linejoin:miter;stroke:rgb(0%,0%,0%);stroke-opacity:1;stroke-miterlimit:1;" d="M 16.484482 13.684043 L 15.087596 13.684043 C 14.340539 12.838711 14.443921 11.097598 14.443921 11.097598 L 12.996575 11.097598 L 12.996575 8.306895 L 14.443921 8.306895 C 14.443921 8.306895 14.340539 6.564551 15.087596 5.720449 L 16.484482 5.720449 Z M 16.484482 13.684043 " transform="matrix(3.173913,0,0,3.174603,0,0)"/>
<path style="fill:none;stroke-width:1;stroke-linecap:butt;stroke-linejoin:miter;stroke:rgb(0.784314%,43.921569%,62.352941%);stroke-opacity:1;stroke-miterlimit:1;" d="M 16.484482 5.720449 L 17.134311 4.924336 L 17.578607 4.924336 L 17.578607 9.104238 L 20.267765 9.104238 L 20.517605 9.352793 L 20.766214 9.352793 L 21.185895 8.933203 C 21.610499 8.758477 21.860338 9.553359 21.860338 9.553359 L 21.860338 9.851133 C 21.860338 9.851133 21.610499 10.646016 21.185895 10.476211 L 20.766214 10.051699 L 20.517605 10.051699 L 20.267765 10.300254 L 17.578607 10.300254 L 17.578607 14.485078 L 17.134311 14.485078 L 16.484482 13.685273 Z M 16.484482 5.720449 " transform="matrix(3.173913,0,0,3.174603,0,0)"/>
<path style=" stroke:none;fill-rule:nonzero;fill:rgb(69.803922%,69.803922%,69.803922%);fill-opacity:1;" d="M 52.320312 43.441406 L 47.886719 43.441406 C 45.515625 40.761719 45.84375 35.226562 45.84375 35.226562 L 41.25 35.226562 L 41.25 26.382812 L 45.84375 26.382812 C 45.84375 26.382812 45.515625 20.84375 47.886719 18.160156 L 52.320312 18.160156 L 52.320312 43.445312 "/>
<path style="fill:none;stroke-width:1;stroke-linecap:butt;stroke-linejoin:miter;stroke:rgb(0.784314%,43.921569%,62.352941%);stroke-opacity:1;stroke-miterlimit:1;" d="M 16.484482 13.684043 L 15.087596 13.684043 C 14.340539 12.838711 14.443921 11.097598 14.443921 11.097598 L 12.996575 11.097598 L 12.996575 8.306895 L 14.443921 8.306895 C 14.443921 8.306895 14.340539 6.564551 15.087596 5.720449 L 16.484482 5.720449 Z M 16.484482 13.684043 " transform="matrix(3.173913,0,0,3.174603,0,0)"/>
<path style="fill:none;stroke-width:1;stroke-linecap:butt;stroke-linejoin:miter;stroke:rgb(0%,0%,0%);stroke-opacity:1;stroke-miterlimit:1;" d="M 16.484482 18.625605 L 17.134311 17.829492 L 17.578607 17.829492 L 17.578607 22.014316 L 20.267765 22.014316 L 20.517605 22.262871 L 20.766214 22.262871 L 21.185895 21.83959 C 21.610499 21.662402 21.860338 22.458516 21.860338 22.458516 L 21.860338 22.756289 C 21.860338 22.756289 21.610499 23.558555 21.185895 23.381367 L 20.766214 22.956855 L 20.517605 22.956855 L 20.267765 23.20541 L 17.578607 23.20541 L 17.578607 27.390234 L 17.134311 27.390234 L 16.484482 26.594121 Z M 16.484482 18.625605 " transform="matrix(3.173913,0,0,3.174603,0,0)"/>
<path style=" stroke:none;fill-rule:nonzero;fill:rgb(69.803922%,69.803922%,69.803922%);fill-opacity:1;" d="M 52.320312 84.425781 L 47.886719 84.425781 C 45.515625 81.730469 45.84375 76.195312 45.84375 76.195312 L 41.25 76.195312 L 41.25 67.347656 L 45.84375 67.347656 C 45.84375 67.347656 45.515625 61.824219 47.886719 59.128906 L 52.320312 59.128906 L 52.320312 84.425781 "/>
<path style="fill:none;stroke-width:1;stroke-linecap:butt;stroke-linejoin:miter;stroke:rgb(0%,0%,0%);stroke-opacity:1;stroke-miterlimit:1;" d="M 16.484482 26.594121 L 15.087596 26.594121 C 14.340539 25.745098 14.443921 24.001523 14.443921 24.001523 L 12.996575 24.001523 L 12.996575 21.214512 L 14.443921 21.214512 C 14.443921 21.214512 14.340539 19.474629 15.087596 18.625605 L 16.484482 18.625605 Z M 16.484482 26.594121 " transform="matrix(3.173913,0,0,3.174603,0,0)"/>
<path style="fill:none;stroke-width:1;stroke-linecap:butt;stroke-linejoin:miter;stroke:rgb(0.784314%,43.921569%,62.352941%);stroke-opacity:1;stroke-miterlimit:1;" d="M 16.484482 18.625605 L 17.134311 17.829492 L 17.578607 17.829492 L 17.578607 22.014316 L 20.267765 22.014316 L 20.517605 22.262871 L 20.766214 22.262871 L 21.185895 21.83959 C 21.610499 21.662402 21.860338 22.458516 21.860338 22.458516 L 21.860338 22.756289 C 21.860338 22.756289 21.610499 23.558555 21.185895 23.381367 L 20.766214 22.956855 L 20.517605 22.956855 L 20.267765 23.20541 L 17.578607 23.20541 L 17.578607 27.390234 L 17.134311 27.390234 L 16.484482 26.594121 Z M 16.484482 18.625605 " transform="matrix(3.173913,0,0,3.174603,0,0)"/>
<path style=" stroke:none;fill-rule:nonzero;fill:rgb(69.803922%,69.803922%,69.803922%);fill-opacity:1;" d="M 52.320312 84.425781 L 47.886719 84.425781 C 45.515625 81.730469 45.84375 76.195312 45.84375 76.195312 L 41.25 76.195312 L 41.25 67.347656 L 45.84375 67.347656 C 45.84375 67.347656 45.515625 61.824219 47.886719 59.128906 L 52.320312 59.128906 L 52.320312 84.425781 "/>
<path style="fill:none;stroke-width:1;stroke-linecap:butt;stroke-linejoin:miter;stroke:rgb(0.784314%,43.921569%,62.352941%);stroke-opacity:1;stroke-miterlimit:1;" d="M 16.484482 26.594121 L 15.087596 26.594121 C 14.340539 25.745098 14.443921 24.001523 14.443921 24.001523 L 12.996575 24.001523 L 12.996575 21.214512 L 14.443921 21.214512 C 14.443921 21.214512 14.340539 19.474629 15.087596 18.625605 L 16.484482 18.625605 Z M 16.484482 26.594121 " transform="matrix(3.173913,0,0,3.174603,0,0)"/>
<g clip-path="url(#clip1)" clip-rule="nonzero">
<use xlink:href="#image6" transform="matrix(0.990261,0,0,0.990476,53.63913,7.854159)"/>
</g>
<g clip-path="url(#clip2)" clip-rule="nonzero">
<use xlink:href="#image7" transform="matrix(0.990261,0,0,0.990476,53.63913,49.124)"/>
</g>
</g>
</svg>

<svg xmlns="http://www.w3.org/2000/svg" xmlns:xlink="http://www.w3.org/1999/xlink" viewBox="0 0 22.5 62.5" height="62.5" width="22.5"><defs><clipPath id="a"><path d="M130 381.738h50v80h-50v-80z"/></clipPath><clipPath id="b"><path d="M130 271.738h50v90h-50v-90z"/></clipPath></defs><path d="M5.694 33.02h7.871V5.022H5.694V33.02z" fill="#fff"/><path d="M5.694 33.019h7.871V5.022H5.694v27.997z" fill="none" stroke="#02709f" stroke-width="1" stroke-miterlimit="1"/><path d="M.498 60.804l5.196-27.999h7.871l4.647 27.999" fill="#fff"/><path d="M.498 60.803l5.196-27.998h7.871l4.647 27.998" fill="none" stroke="#02709f" stroke-width="1" stroke-miterlimit="1"/><path d="M.225 60.803l16.186-8.095-13.125-7.437 10.938-6.782-8.097-5.468 7.223-9.625-7.441-6.123 7.656-6.783-7.871-5.248" fill="none" stroke="#02709f" stroke-width="1" stroke-miterlimit="1"/><path d="M18.345 60.803l-15.62-8.095 13.125-7.437L4.913 38.49l8.09-5.468-7.217-9.625 7.437-6.123-7.657-6.783 7.876-5.248M13.1 5.022H5.88L7.68 1.53h3.535L13.1 5.022z" fill="none" stroke="#02709f" stroke-width="1" stroke-miterlimit="1"/><path d="M16.485 5.72l.649-.796h.444v4.18h2.69l.25.249h.248l.42-.42c.425-.175.674.62.674.62v.298s-.249.795-.674.625l-.42-.424h-.248l-.25.248h-2.69v4.185h-.444l-.65-.8V5.72z" fill="none" stroke="#000" stroke-width="1" stroke-miterlimit="1"/><path d="M16.485 13.684h-1.398c-.746-.844-.643-2.588-.643-2.588h-1.447V8.31h1.447s-.103-1.744.643-2.589h1.398v7.964" fill="#b2b2b2"/><path d="M16.485 13.684h-1.398c-.746-.845-.643-2.587-.643-2.587h-1.447v-2.79h1.447s-.103-1.742.643-2.587h1.398v7.964z" fill="none" stroke="#000" stroke-width="1" stroke-miterlimit="1"/><path d="M16.485 5.72l.649-.796h.444v4.18h2.69l.25.249h.248l.42-.42c.425-.175.674.62.674.62v.298s-.249.795-.674.625l-.42-.424h-.248l-.25.248h-2.69v4.185h-.444l-.65-.8V5.72z" fill="none" stroke="#02709f" stroke-width="1" stroke-miterlimit="1"/><path d="M16.485 13.684h-1.398c-.746-.844-.643-2.588-.643-2.588h-1.447V8.31h1.447s-.103-1.744.643-2.589h1.398v7.964" fill="#b2b2b2"/><path d="M16.485 13.684h-1.398c-.746-.845-.643-2.587-.643-2.587h-1.447v-2.79h1.447s-.103-1.742.643-2.587h1.398v7.964z" fill="none" stroke="#02709f" stroke-width="1" stroke-miterlimit="1"/><path d="M16.485 18.626l.649-.796h.444v4.184h2.69l.25.249h.248l.42-.424c.425-.176.674.62.674.62v.297s-.249.802-.674.625l-.42-.424h-.248l-.25.248h-2.69v4.185h-.444l-.65-.796v-7.968z" fill="none" stroke="#000" stroke-width="1" stroke-miterlimit="1"/><path d="M16.485 26.594h-1.398c-.746-.849-.643-2.593-.643-2.593h-1.447v-2.787h1.447s-.103-1.739.643-2.589h1.398v7.969" fill="#b2b2b2"/><path d="M16.485 26.594h-1.398c-.746-.849-.643-2.592-.643-2.592h-1.447v-2.788h1.447s-.103-1.739.643-2.588h1.398v7.968z" fill="none" stroke="#000" stroke-width="1" stroke-miterlimit="1"/><path d="M16.485 18.626l.649-.796h.444v4.184h2.69l.25.249h.248l.42-.424c.425-.176.674.62.674.62v.297s-.249.802-.674.625l-.42-.424h-.248l-.25.248h-2.69v4.185h-.444l-.65-.796v-7.968z" fill="none" stroke="#02709f" stroke-width="1" stroke-miterlimit="1"/><path d="M16.485 26.594h-1.398c-.746-.849-.643-2.593-.643-2.593h-1.447v-2.787h1.447s-.103-1.739.643-2.589h1.398v7.969" fill="#b2b2b2"/><path d="M16.485 26.594h-1.398c-.746-.849-.643-2.592-.643-2.592h-1.447v-2.788h1.447s-.103-1.739.643-2.588h1.398v7.968z" fill="none" stroke="#02709f" stroke-width="1" stroke-miterlimit="1"/><g clip-path="url(#a)" transform="matrix(.13 0 0 -.13 0 62.5)"><image xlink:href="data:image/png;base64,iVBORw0KGgoAAAANSUhEUgAAABUAAAAiCAYAAACwaJKDAAAABHNCSVQICAgIfAhkiAAAAeBJREFUSInt1s1LFGEcwPHv88wrs+KuiLKQKKiHpCgs7IUiMPLiIQWJLunRIBACjxWEBvUPSNChghaPRnQqyAIJ8hCxnoQQKXwhqdxQB3d2dqfDui8TrgzDXpb8wQMzz+95Ps8LzwOPmHr51hub/QaKSiGEY7N07xpt8SbChBx7t+wDATzdYmPzTygQQKLqoTtXRvdCc3drBK1mHKL/M6pWSiRm5/mQXNw319rcyPXL57l6f4r3qzYqOcYvHeXu8AAAQt5+5gFYuylsMxZ8NnYK1yprn3WZONPEnRsDpeUrWQct5wRGfSCAojI5t4yTccuuaTZDz8ocupcJDANoUiBE/jtjxXg4/dq/p9H0Jhd+fcazopimiWEYGIaBaZrFkpYaT77aeF6+z/DJIyQW1nCyOQC+/0z50fW6FpKNZ/GKQ++V7UKLQkUpnn5Z8f2f7mgpLd9RTZLxMjBERLZ+cGuwr4TmpBIcdB3i9jrFPQBEeofnI73AAed0Zug4J9pb98011EeI1UV48OIViflFdCl4NNJH/7nu/ACVzumn0Yv0dHUGm/k/UTt3/xCtNdTRI9VHXalVD1Xs8K+7iuibm1cQadtXqe38Dv02BZC9p47xuL8La3ujCH4cH6S5IRoa/QvPhI4bYvzZEAAAAABJRU5ErkJggg==" transform="matrix(50.4 0 0 -81.6 130 461.738)" preserveAspectRatio="none" height="1" width="1"/></g><g clip-path="url(#b)" transform="matrix(.13 0 0 -.13 0 62.5)"><image xlink:href="data:image/png;base64,iVBORw0KGgoAAAANSUhEUgAAABUAAAAmCAYAAAAr+dCVAAAABHNCSVQICAgIfAhkiAAAAh9JREFUSInt1j9oE1EcwPHvOy+5u1zSNmkqwSi1KpJOglBwcHBQKE5aFHRRF11EzBoqTnVxEwRFUAfBLYKgbi6tSCktIhKKukRRWlqaqjX/e/ccWu88mmq5nIPYHzx4/I73eT9+vPc4IaWU44X3nLuV53NdIbHF4tX1SyQ6ovgNUZyZk5mrD2iYCScZL89SvJElaui+UGXflbseEGDRTDFd/OS7UmUplvK9eF3UmUg7eFSvfwseDTI20f8ZVdtZ/HzqDTefjmGEVK6dPUbftq0ACCV7XwJEal+o6F3ubtWvCClbYiG7yUAyxOiSgQxpAOjlBaaGT5HpTbuoWV2kbMTbKZye8gyzd3JuT7Vmhd2l6bbQeTPFo9EJb0/3LhToVppYeoxwOLxmaJrGsqKS/1jjZ2eG+lM8eTdHw7IBwbPJghetqQZvzT6qqo4QAmEJRE0g6gIAIZaxpcWvrR77UFoFV6LT0F3UUlQmth+iHDLdFXJ1eMKbmK80nLlSr5A7PeT2tKlqXvBPYa99f0/uUEl2dax/Tgdj3+mOGi2/xU2d7PEjHB65R1FNIqwmR3tsHuYuAr85p+MXDjLQv2cDBUtqjQYRXXNybV9TRREeMBC05Uab6D+GWko4eLQejgSIBvgP5aDnd7a4/rZNLNL63m8IvZ09wwG1hPOk2TaXMwaZ3rRvVEi58uQ+fjFJ/uVr9u9Kkz0x6Bv0oEHGXzmnPwCYVrFpTjRmLwAAAABJRU5ErkJggg==" transform="matrix(50.4 0 0 -91.2 130 361.738)" preserveAspectRatio="none" height="1" width="1"/></g></svg>
